X: 336
T: Down the river
C: anon.
O: Ireland
B: Francis O'Neill: "The Dance Music of Ireland" (1907) no. 336
R: Double jig
Z: Transcribed by Frank Nordberg - http://www.musicaviva.com
F: http://www.musicaviva.com/abc/tunes/ireland/oneill-1001/oneill-1001-033
6.abc
M: 6/8
L: 1/8
K: G
c|dBG GBd|cAF FAc|Bcd ea(g|f)ed (cB)A|dBG GB(d|c)AF (AB)c|BdB cA(F|A)GG G
2: |
||B|Ggf gb(a|g)dc (BA)G|Ggf ba(g|f)ef g2[Ac]|Gg=f df(d|c)AG (FG)A|=fe
d cA(F|A)GG G2:|
W:
W:
W: From Musica Viva - http://www.musicaviva.com
W: the Internet center for free sheet music downloads.


